images/illustration-talks.svg

<svg xmlns="http://www.w3.org/2000/svg" width="96" height="78" viewBox="0 0 96 78">
  <defs>
    <linearGradient id="illustration-talks-a" x1="50%" x2="50%" y1="0%" y2="100%">
      <stop offset="0%" stop-color="#F5FAFD"/>
      <stop offset="100%" stop-color="#C5ECFF"/>
    </linearGradient>
  </defs>
  <g fill="none" fill-rule="evenodd" transform="translate(1)">
    <path fill="url(#illustration-talks-a)" d="M89,42 C89,19.0173451 69.9716875,0 47,0 C23.02725,0 4,19.0173451 4,42 C4,48.7274336 5.3610625,54.6562832 8,60 L85,60 C87.6389375,54.6562832 89,48.7274336 89,42"/>
    <path d="M8.11913568,59.5139181 C14.8254005,74.2213634 29.7050924,84.4579832 46.9983995,84.4579832 C64.2906395,84.4579832 79.1692643,74.2213634 85.8755292,59.5139181 L8.11913568,59.5139181 Z"/>
    <path stroke="#008BCC" stroke-linecap="round" stroke-linejoin="round" stroke-width="1.27" d="M5.38381189,59.5139181 L88.61192,59.5139181"/>
    <path stroke="#008BCC" stroke-linecap="round" stroke-linejoin="round" stroke-width="1.27" d="M0.58219027,59.5139181 L3.24975784,59.5139181"/>
    <path stroke="#008BCC" stroke-linecap="round" stroke-linejoin="round" stroke-width="1.27" d="M90.7459741,59.5139181 L93.4135416,59.5139181"/>
    <polygon fill="#FFF" points="47.432 51.382 80.816 51.382 80.816 19.45 47.432 19.45"/>
    <polygon fill="#F0F0F0" points="47.432 22.296 80.816 22.296 80.816 19.45 47.432 19.45"/>
    <polygon points="47.432 51.382 80.816 51.382 80.816 19.45 47.432 19.45"/>
    <g transform="translate(49 27)">
      <path fill="#35C4A5" d="M0.367312541,19.7158736 C0.367312541,20.6907682 1.15950227,21.4805486 2.13737102,21.4805486 L27.803219,21.4805486 C28.7810877,21.4805486 29.5726667,20.6907682 29.5726667,19.7158736 L29.5726667,10.0101611 C29.5726667,9.52301821 29.1768772,9.12782357 28.6882482,9.12782357 L20.5751748,9.12782357 C20.1677804,9.12782357 19.8379558,8.79839321 19.8379558,8.39223786 L19.8379558,1.18678607 C19.8379558,0.699643214 19.4415556,0.304448571 18.9529266,0.304448571 L2.13737102,0.304448571 C1.15950227,0.304448571 0.367312541,1.09422893 0.367312541,2.06912357 L0.367312541,19.7158736 Z"/>
      <path fill="#66EED1" d="M19.8378947,1.18672518 C19.8378947,0.699582321 19.4414945,0.304387679 18.9528655,0.304387679 L2.13730994,0.304387679 C1.1594412,0.304387679 0.367251462,1.09477696 0.367251462,2.06906268 L0.367251462,19.7158127 C0.367251462,20.3125627 0.665925926,20.838068 1.12096166,21.1571466 L19.8378947,2.49713946 L19.8378947,1.18672518 Z"/>
      <path stroke="#6BC2E0" stroke-linecap="round" stroke-linejoin="round" stroke-width=".526" d="M19.8378947,2.06918446 L29.5726056,2.06918446"/>
      <path stroke="#6BC2E0" stroke-linecap="round" stroke-linejoin="round" stroke-width=".526" d="M19.8378947,5.59847357 L29.5726056,5.59847357"/>
      <path stroke="#6BC2E0" stroke-linecap="round" stroke-linejoin="round" stroke-width=".526" d="M23.3779506,0.304509464 L23.3779506,9.12788446"/>
      <path stroke="#6BC2E0" stroke-linecap="round" stroke-linejoin="round" stroke-width=".526" d="M26.9180065,0.304509464 L26.9180065,9.12788446"/>
      <path fill="#008BCC" d="M2.13730994,0.304509464 C1.1594412,0.304509464 0.367251462,1.09428982 0.367251462,2.06918446 L0.367251462,4.71619696 L19.8378947,4.71619696 L19.8378947,1.18684696 C19.8378947,0.699704107 19.4414945,0.304509464 18.9528655,0.304509464 L2.13730994,0.304509464 Z"/>
      <path fill="#FF6242" d="M4.79221442,2.51010964 C4.79221442,2.99786143 4.39642495,3.39244714 3.90718519,3.39244714 C3.41855621,3.39244714 3.02215595,2.99786143 3.02215595,2.51010964 C3.02215595,2.02296679 3.41855621,1.62777214 3.90718519,1.62777214 C4.39642495,1.62777214 4.79221442,2.02296679 4.79221442,2.51010964"/>
      <path fill="#FFE600" d="M8.774846,2.51010964 C8.774846,2.99786143 8.37905653,3.39244714 7.88981676,3.39244714 C7.40118778,3.39244714 7.00478752,2.99786143 7.00478752,2.51010964 C7.00478752,2.02296679 7.40118778,1.62777214 7.88981676,1.62777214 C8.37905653,1.62777214 8.774846,2.02296679 8.774846,2.51010964"/>
      <path fill="#6DD627" d="M12.3152073,2.51010964 C12.3152073,2.99786143 11.918807,3.39244714 11.430178,3.39244714 C10.9409383,3.39244714 10.5451488,2.99786143 10.5451488,2.51010964 C10.5451488,2.02296679 10.9409383,1.62777214 11.430178,1.62777214 C11.918807,1.62777214 12.3152073,2.02296679 12.3152073,2.51010964"/>
    </g>
    <path fill="#DAEDF7" d="M81.4584641,16.8952314 L46.790756,16.8952314 C46.0822501,16.8952314 45.5071225,17.4673527 45.5071225,18.1721553 C45.5071225,18.8780192 46.0822501,19.4490791 46.790756,19.4490791 L81.4584641,19.4490791 C82.1680371,19.4490791 82.7431646,18.8780192 82.7431646,18.1721553 C82.7431646,17.4673527 82.1680371,16.8952314 81.4584641,16.8952314"/>
    <path fill="#FFF" d="M46.7905426,18.1723675 L81.4593177,18.1723675 C81.9341448,18.1723675 82.3481512,18.4292383 82.5711599,18.8113602 C82.6810637,18.6234836 82.7429512,18.4058864 82.7429512,18.1723675 C82.7429512,17.467565 82.1678237,16.8954437 81.4593177,16.8954437 L46.7905426,16.8954437 C46.0820366,16.8954437 45.5069091,17.467565 45.5069091,18.1723675 C45.5069091,18.4058864 45.5687966,18.6234836 45.6787004,18.8113602 C45.9006421,18.4292383 46.3157156,18.1723675 46.7905426,18.1723675"/>
    <path d="M81.4584641,16.8952314 L46.790756,16.8952314 C46.0822501,16.8952314 45.5071225,17.4673527 45.5071225,18.1721553 C45.5071225,18.8780192 46.0822501,19.4490791 46.790756,19.4490791 L81.4584641,19.4490791 C82.1680371,19.4490791 82.7431646,18.8780192 82.7431646,18.1721553 C82.7431646,17.4673527 82.1680371,16.8952314 81.4584641,16.8952314 Z"/>
    <path fill="#DAEDF7" d="M81.4584641,51.383002 L46.790756,51.383002 C46.0822501,51.383002 45.5071225,51.9540619 45.5071225,52.6599258 C45.5071225,53.3647284 46.0822501,53.9368497 46.790756,53.9368497 L81.4584641,53.9368497 C82.1680371,53.9368497 82.7431646,53.3647284 82.7431646,52.6599258 C82.7431646,51.9540619 82.1680371,51.383002 81.4584641,51.383002"/>
    <path fill="#FFF" d="M46.7905426,52.6601381 L81.4593177,52.6601381 C81.9341448,52.6601381 82.3481512,52.9170089 82.5711599,53.2991308 C82.6810637,53.1112542 82.7429512,52.8925956 82.7429512,52.6601381 C82.7429512,51.9542742 82.1678237,51.3832143 81.4593177,51.3832143 L46.7905426,51.3832143 C46.0820366,51.3832143 45.5069091,51.9542742 45.5069091,52.6601381 C45.5069091,52.8925956 45.5687966,53.1112542 45.6787004,53.2991308 C45.9006421,52.9170089 46.3157156,52.6601381 46.7905426,52.6601381"/>
    <path d="M81.4584641,51.383002 L46.790756,51.383002 C46.0822501,51.383002 45.5071225,51.9540619 45.5071225,52.6599258 C45.5071225,53.3647284 46.0822501,53.9368497 46.790756,53.9368497 L81.4584641,53.9368497 C82.1680371,53.9368497 82.7431646,53.3647284 82.7431646,52.6599258 C82.7431646,51.9540619 82.1680371,51.383002 81.4584641,51.383002 Z"/>
    <polyline stroke="#008BCC" stroke-linecap="round" stroke-linejoin="round" stroke-width="1.27" points="57.063 16.895 64.124 11.147 71.187 16.895"/>
    <path fill="#F0F0F0" d="M66.0512341,11.1474819 C66.0512341,12.2057472 65.1880092,13.0644599 64.1241832,13.0644599 C63.0603573,13.0644599 62.1992665,12.2057472 62.1992665,11.1474819 C62.1992665,10.0892167 63.0603573,9.23156544 64.1241832,9.23156544 C65.1880092,9.23156544 66.0512341,10.0892167 66.0512341,11.1474819"/>
    <path fill="#FFF" d="M64.1245034,10.9349797 C64.8810255,10.9349797 65.5351131,11.3680512 65.8498861,11.9985522 C65.9779293,11.7427429 66.0515542,11.4529671 66.0515542,11.1472696 C66.0515542,10.0890044 65.1883293,9.2324146 64.1245034,9.2324146 C63.0606774,9.2324146 62.1985196,10.0890044 62.1985196,11.1472696 C62.1985196,11.4529671 62.2721444,11.7427429 62.4001877,11.9985522 C62.7149606,11.3680512 63.3690482,10.9349797 64.1245034,10.9349797"/>
    <g transform="translate(46 26.078)">
      <path fill="#FFCEBF" d="M1.16154789,13.3458179 L6.59378249,0.292110924"/>
      <path stroke="#1A1816" stroke-linecap="round" stroke-linejoin="round" stroke-width="1.27" d="M0,14.5739598 L9.38614999,4"/>
    </g>
    <g transform="translate(19 29)">
      <path fill="#020202" d="M24.7777741,46.1972602 C24.7777741,47.2077602 19.2836519,48.0282607 12.5069632,48.0282607 C5.72920757,48.0282607 0.236152432,47.2077602 0.236152432,46.1972602 C0.236152432,45.1856987 5.72920757,44.3651982 12.5069632,44.3651982 C19.2836519,44.3651982 24.7777741,45.1856987 24.7777741,46.1972602" opacity=".15"/>
      <polygon fill="#FFD0A9" points="6.092 22.993 8.19 45.587 16.78 45.587 18.974 22.993"/>
      <path stroke="#FFF" stroke-linecap="round" stroke-linejoin="round" stroke-width="1.27" d="M12.4850892,26.8872549 L12.4850892,44.5752507"/>
      <path fill="#0C4560" d="M12.5069632,45.5867144 C12.5069632,43.5646529 10.8584065,41.9247133 8.82572,41.9247133 L8.21217946,41.9247133 C6.84851892,41.9247133 5.65985081,42.6602979 5.02283568,43.7546524 C4.80302811,44.1335899 4.80302811,44.5985048 5.02176865,44.9774423 C5.24157622,45.3542569 5.64704649,45.5867144 6.08559459,45.5867144 L12.5069632,45.5867144 Z"/>
      <path fill="#0C4560" d="M12.5069632,45.5867144 C12.5069632,43.5646529 14.154453,41.9247133 16.1871395,41.9247133 L16.80068,41.9247133 C18.1643405,41.9247133 19.3540757,42.6602979 19.9900238,43.7546524 C20.2098314,44.1335899 20.2098314,44.5985048 19.9910908,44.9774423 C19.7712832,45.3542569 19.365813,45.5867144 18.9272649,45.5867144 L12.5069632,45.5867144 Z"/>
      <polygon fill="#006898" points="5.736 21.119 6.372 33.99 18.643 33.99 19.233 21.119 19.255 18.99 5.758 18.99"/>
      <path fill="#4ACFFF" d="M23.5502662,11.4078256 C23.5502662,5.34057983 18.6056629,0.421822479 12.5065364,0.421822479 C6.40740995,0.421822479 1.4628067,5.34057983 1.44039914,11.4078256 L1.44039914,14.4594932 L5.75759049,14.4594932 L5.75759049,23.6144958 L11.2794554,24.2248293 L12.5065364,20.5628283 L13.7336175,24.2248293 L19.2554824,23.6144958 L19.2554824,12.6284926 L23.5502662,12.6284926 L23.5502662,11.4078256 Z"/>
      <path fill="#83DEFF" d="M23.5502662,11.4078256 C23.5502662,5.33951838 18.6056629,0.421822479 12.5054694,0.421822479 C6.40740995,0.421822479 1.4628067,5.33951838 1.44039914,11.4078256 L1.44039914,13.8374837 C1.4628067,7.76917647 6.40740995,2.85148057 12.5054694,2.85148057 C17.7648456,2.85148057 22.1567289,6.51135872 23.2696381,11.4078256 L23.5502662,11.4078256 Z"/>
      <path fill="#FFF" d="M16.2155224,1.05656933 L12.4851959,13.2388262 L9.18381427,3.36416071 L8.45930292,1.19031197 C9.71092562,0.690369223 11.0852564,0.421822479 12.5086705,0.421822479 C13.8221808,0.421822479 15.0492618,0.629866597 16.2155224,1.05656933"/>
      <path stroke="#F0F0F0" stroke-linecap="round" stroke-linejoin="round" d="M16.0568884,1.42755162 L12.5086705,12.3593475 L9.18381427,3.36416071 L8.6710978,1.6354631 C9.9227205,1.13552035 11.0852564,0.421822479 12.5086705,0.421822479 C13.8221808,0.421822479 14.8906279,1.00084888 16.0568884,1.42755162 Z"/>
      <path fill="#FFD0A9" d="M1.44071924,11.4191831 L1.44071924,23.9188134 C1.44071924,25.1044526 2.42025005,26.0555114 3.60998519,26.0555114 C4.79972032,26.0555114 5.75791059,25.1044526 5.75791059,23.9188134 L5.73550303,11.4191831 L1.44071924,11.4191831 Z"/>
      <path d="M5.73176843,11.4202446 C5.66027762,10.8152183 5.438336,10.2356669 5.08194897,9.73466266 C4.75117059,9.27187064 4.530296,8.5023197 4.530296,7.7338302"/>
      <path stroke="#3CBEED" stroke-linecap="round" stroke-linejoin="round" d="M12.4850892,12.5 L12.4850892,20.5584013"/>
      <path d="M19.2612443,11.4026245 C19.3348692,10.8050284 19.5557438,10.2307842 19.9089297,9.73508724 C20.2407751,9.27123377 20.4605827,8.50274428 20.4605827,7.73425478"/>
      <path fill="#3CBEED" d="M7.72401459,8.91798335 L7.94488919,5.62218241 L5.55154757,5.767601 L5.37975622,3.03436833 C6.28779622,2.25314144 7.31854432,1.63007054 8.45919622,1.19063041 L12.4850892,13.2380831 L7.72401459,8.91798335 Z"/>
      <path fill="#3CBEED" d="M19.2581499,2.72856471 L19.1109002,5.03615609 L19.0607499,5.78023225 L16.6684754,5.63375221 L16.9021543,8.92955315 L12.4846624,13.237977 L16.2149889,1.05678162 C17.3193618,1.44739506 18.3501099,2.00890189 19.2581499,2.72856471 Z"/>
      <polyline points="12.298 .422 10.177 6.335 8.459 1.191"/>
      <path d="M16.2155224,1.05656933 L14.4954748,6.67163761 L13.1840986,2.87589391 L12.3006002,0.421822479 L12.5086705,0.421822479 C13.8104435,0.421822479 15.0620662,0.640481092 16.2155224,1.05656933 Z"/>
      <path fill="#FFD0A9" d="M23.5217435,11.2359451 C23.5668089,11.9181289 24.0945566,12.6232915 24.7721188,12.6232915 C25.449681,12.6232915 25.9991999,12.0777065 25.9991999,11.4026245 C25.9991999,10.2286613 26.9605912,9.27123377 28.1460583,9.27123377 C29.3325923,9.27123377 30.2939837,10.2286613 30.2939837,11.4079318 C30.2939837,14.4362474 27.8216821,16.8956261 24.7721188,16.8956261 C22.0696736,16.8956261 19.7508428,15.1741194 19.2591377,12.6232915 C19.1959802,12.2956481 19.1680027,11.7479282 19.1680027,11.4026245 L23.5217435,11.2359451 Z"/>
      <path fill="#FFD0A9" d="M29.5105724,13.2073011 L27.6848892,12.4600406 C26.7320341,12.0694272 26.2764135,10.9825028 26.6690795,10.0346283 L26.8824849,9.51876381 C27.2751508,8.57088934 28.3667195,8.11871182 29.3195746,8.50826381 L31.1452578,9.25658577 C31.6905086,9.47949018 31.9497962,10.1004382 31.7257205,10.6417775 L30.9030427,12.6298725 C30.678967,13.1722733 30.0558232,13.4302055 29.5105724,13.2073011"/>
    </g>
    <g transform="translate(22 10)">
      <path fill="#804BB5" d="M13,1 C12.0107707,0.36904128 10.8402339,0.096501413 10,0 C7.67467717,-0.090083573 6.08303897,0.316629767 5,1 C1.71567549,2.75062043 0,5.87958775 0,9 L0,20 C0,20.7372034 0.287683132,21.0254668 1,21 C3.05611211,20.799049 4.07342637,19.4143368 4,17 L4,12 C4.32671261,9.99179505 5.61815971,8.69198953 7,9 L11,9 C12.3818403,8.69198953 13.6732874,9.99179505 14,12 L14,17 C13.9255313,19.4143368 14.9438879,20.799049 17,21 C17.7123169,21.0254668 18,20.7372034 18,20 L18,9 C18,5.85443022 16.2551393,2.73489697 13,1"/>
      <path fill="#B973FF" d="M13,1 C12.0107707,0.384699755 10.8402339,0.100595982 10,0 C7.67467717,-0.0939058321 6.08303897,0.330064414 5,1 C1.71567549,2.86623695 0,6.12905951 0,9 L0,13 C0,9.69019104 1.71567549,6.42736847 5,5 C6.08303897,3.89010324 7.67467717,3.46504028 10,4 C10.8402339,3.6606348 12.0107707,3.94473858 13,5 C16.2551393,6.41097787 18,9.66287337 18,13 L18,9 C18,6.10283455 16.2551393,2.85093905 13,1"/>
      <path fill="#FFD0A9" d="M5,8 C4.39676611,7.85790371 3.61716824,8.28049635 3,9 L2,12 C-0.629360017,12.1416023 -0.486035617,15.8326013 2,16 C2.84842827,18.8196359 5.65085462,21 9,21 C12.3501845,21 15.1526109,18.8196359 16,16 C18.4849032,15.8326013 18.6303992,12.1416023 16,12 L15,9 C14.3610693,8.27728678 13.583643,7.85790371 13,8 L5,8 Z"/>
      <g fill="#FFC147" transform="translate(4 14)">
        <path d="M1.5,0.749456128 C1.5,1.16497462 1.16413043,1.5 0.751086957,1.5 C0.336956522,1.5 0,1.16497462 0,0.749456128 C0,0.335025381 0.336956522,0 0.751086957,0 C1.16413043,0 1.5,0.335025381 1.5,0.749456128"/>
        <path d="M10,0.749456128 C10,1.16497462 9.66413043,1.5 9.25108696,1.5 C8.83695652,1.5 8.5,1.16497462 8.5,0.749456128 C8.5,0.335025381 8.83695652,0 9.25108696,0 C9.66413043,0 10,0.335025381 10,0.749456128"/>
      </g>
      <path stroke="#494035" stroke-linecap="round" stroke-linejoin="round" d="M6.5,17 C8.01449275,17.696 9.98550725,17.696 11.5,17"/>
      <g stroke="#494035" stroke-linecap="round" stroke-linejoin="round" transform="translate(5 12)">
        <path d="M0.535079568,0.562025683 C0.873327135,0.225546166 1.42284605,0.225546166 1.76109362,0.562025683"/>
        <path d="M6.44297708,0.562025683 C6.78122465,0.225546166 7.33074357,0.225546166 7.67005816,0.562025683"/>
      </g>
      <path fill="#804BB5" d="M15.6319118,7.13356024 L15.6319118,8.96456077 C15.6319118,9.63858125 15.0823929,10.1852278 14.4058977,10.1852278 L4.58818205,10.1852278 C3.91061989,10.1852278 3.36110097,9.63858125 3.36110097,8.96456077 L3.36110097,7.13356024"/>
    </g>
  </g>
</svg>

<svg xmlns="http://www.w3.org/2000/svg" width="96" height="78" viewBox="0 0 96 78"><defs><linearGradient id="a" x1="50%" x2="50%" y1="0%" y2="100%"><stop offset="0%" stop-color="#F5FAFD"/><stop offset="100%" stop-color="#C5ECFF"/></linearGradient></defs><g fill="none" fill-rule="evenodd" transform="translate(1)"><path fill="url(#a)" d="M89 42C89 19.017 69.972 0 47 0 23.027 0 4 19.017 4 42c0 6.727 1.361 12.656 4 18h77c2.639-5.344 4-11.273 4-18"/><path d="M8.12 59.514c6.705 14.707 21.585 24.944 38.878 24.944S79.17 74.221 85.876 59.514H8.119z"/><path stroke="#008BCC" stroke-linecap="round" stroke-linejoin="round" stroke-width="1.27" d="M5.384 59.514h83.228m-88.03 0H3.25m87.496 0h2.668"/><path fill="#FFF" d="M47.432 51.382L80.816 51.382 80.816 19.45 47.432 19.45z"/><path fill="#F0F0F0" d="M47.432 22.296L80.816 22.296 80.816 19.45 47.432 19.45z"/><path d="M47.432 51.382L80.816 51.382 80.816 19.45 47.432 19.45z"/><path fill="#35C4A5" d="M49.367 46.716c0 .975.793 1.765 1.77 1.765h25.666c.978 0 1.77-.79 1.77-1.765V37.01a.883.883 0 0 0-.885-.882h-8.113a.736.736 0 0 1-.737-.736v-7.205a.884.884 0 0 0-.885-.883H51.137c-.977 0-1.77.79-1.77 1.765v17.647z"/><path fill="#66EED1" d="M68.838 28.187a.884.884 0 0 0-.885-.883H51.137c-.978 0-1.77.79-1.77 1.765v17.647c0 .597.299 1.122.754 1.441l18.717-18.66v-1.31z"/><path stroke="#6BC2E0" stroke-linecap="round" stroke-linejoin="round" stroke-width=".526" d="M68.838 29.07h9.735m-9.735 3.528h9.735m-6.195-5.293v8.823m3.54-8.823v8.823"/><path fill="#008BCC" d="M51.137 27.305c-.978 0-1.77.79-1.77 1.764v2.647h19.47v-3.53a.884.884 0 0 0-.884-.881H51.137z"/><path fill="#FF6242" d="M53.792 29.51a.883.883 0 0 1-.885.882.883.883 0 1 1 0-1.764c.49 0 .885.395.885.882"/><path fill="#FFE600" d="M57.775 29.51a.883.883 0 0 1-.885.882.883.883 0 1 1 0-1.764c.49 0 .885.395.885.882"/><path fill="#6DD627" d="M61.315 29.51a.883.883 0 0 1-.885.882.883.883 0 1 1 0-1.764c.489 0 .885.395.885.882"/><path fill="#DAEDF7" d="M81.458 16.895H46.791a1.28 1.28 0 0 0-1.284 1.277 1.28 1.28 0 0 0 1.284 1.277h34.667a1.28 1.28 0 0 0 1.285-1.277c0-.705-.575-1.277-1.285-1.277"/><path fill="#FFF" d="M46.79 18.172h34.67c.474 0 .888.257 1.111.64.11-.189.172-.406.172-.64a1.28 1.28 0 0 0-1.284-1.277H46.791a1.28 1.28 0 0 0-1.284 1.277c0 .234.062.451.172.64a1.284 1.284 0 0 1 1.112-.64"/><path d="M81.458 16.895H46.791a1.28 1.28 0 0 0-1.284 1.277 1.28 1.28 0 0 0 1.284 1.277h34.667a1.28 1.28 0 0 0 1.285-1.277c0-.705-.575-1.277-1.285-1.277z"/><path fill="#DAEDF7" d="M81.458 51.383H46.791a1.28 1.28 0 0 0-1.284 1.277 1.28 1.28 0 0 0 1.284 1.277h34.667c.71 0 1.285-.572 1.285-1.277a1.28 1.28 0 0 0-1.285-1.277"/><path fill="#FFF" d="M46.79 52.66h34.67c.474 0 .888.257 1.111.64a1.28 1.28 0 0 0-1.112-1.916H46.791a1.28 1.28 0 0 0-1.112 1.915 1.284 1.284 0 0 1 1.112-.639"/><path d="M81.458 51.383H46.791a1.28 1.28 0 0 0-1.284 1.277 1.28 1.28 0 0 0 1.284 1.277h34.667c.71 0 1.285-.572 1.285-1.277a1.28 1.28 0 0 0-1.285-1.277z"/><path stroke="#008BCC" stroke-linecap="round" stroke-linejoin="round" stroke-width="1.27" d="M57.063 16.895L64.124 11.147 71.187 16.895"/><path fill="#F0F0F0" d="M66.051 11.147a1.923 1.923 0 0 1-1.927 1.917 1.92 1.92 0 0 1-1.925-1.917 1.92 1.92 0 0 1 1.925-1.915c1.064 0 1.927.857 1.927 1.915"/><path fill="#FFF" d="M64.125 10.935c.756 0 1.41.433 1.725 1.064a1.9 1.9 0 0 0 .202-.852 1.92 1.92 0 0 0-1.927-1.915 1.92 1.92 0 0 0-1.926 1.915c0 .306.073.596.201.852a1.925 1.925 0 0 1 1.725-1.064"/><g><path fill="#FFCEBF" d="M47.162 39.424l5.432-13.054"/><path stroke="#1A1816" stroke-linecap="round" stroke-linejoin="round" stroke-width="1.27" d="M46 40.652l9.386-10.574"/></g><g transform="translate(19 29)"><path fill="#020202" d="M24.778 46.197c0 1.01-5.494 1.831-12.271 1.831-6.778 0-12.27-.82-12.27-1.83 0-1.012 5.492-1.833 12.27-1.833 6.777 0 12.27.82 12.27 1.832" opacity=".15"/><path fill="#FFD0A9" d="M6.092 22.993L8.19 45.587 16.78 45.587 18.974 22.993z"/><path stroke="#FFF" stroke-linecap="round" stroke-linejoin="round" stroke-width="1.27" d="M12.485 26.887v17.688"/><path fill="#0C4560" d="M12.507 45.587c0-2.022-1.649-3.662-3.681-3.662h-.614a3.683 3.683 0 0 0-3.19 1.83 1.219 1.219 0 0 0 1.064 1.832h6.421zm0 0a3.671 3.671 0 0 1 3.68-3.662h.614c1.363 0 2.553.735 3.189 1.83a1.219 1.219 0 0 1-1.063 1.832h-6.42z"/><path fill="#006898" d="M5.736 21.119L6.372 33.99 18.643 33.99 19.233 21.119 19.255 18.99 5.758 18.99z"/><path fill="#4ACFFF" d="M23.55 11.408C23.55 5.34 18.606.422 12.507.422 6.407.422 1.463 5.34 1.44 11.408v3.051h4.318v9.155l5.521.61 1.228-3.661 1.227 3.662 5.521-.61V12.627h4.295v-1.22z"/><path fill="#83DEFF" d="M23.55 11.408C23.55 5.34 18.606.422 12.505.422 6.407.422 1.463 5.34 1.44 11.408v2.43C1.463 7.768 6.407 2.85 12.505 2.85c5.26 0 9.652 3.66 10.765 8.557h.28z"/><path fill="#FFF" d="M16.216 1.057l-3.73 12.182-3.302-9.875-.725-2.174a10.92 10.92 0 0 1 4.05-.768c1.313 0 2.54.208 3.707.635"/><path stroke="#F0F0F0" stroke-linecap="round" stroke-linejoin="round" d="M16.057 1.428l-3.548 10.931-3.325-8.995-.513-1.729c1.252-.5 2.414-1.213 3.838-1.213 1.313 0 2.382.579 3.548 1.006z"/><path fill="#FFD0A9" d="M1.44 11.42v12.499c0 1.185.98 2.137 2.17 2.137s2.148-.952 2.148-2.137l-.022-12.5H1.44z"/><path d="M5.732 11.42a3.644 3.644 0 0 0-.65-1.685c-.33-.463-.552-1.233-.552-2.001"/><path stroke="#3CBEED" stroke-linecap="round" stroke-linejoin="round" d="M12.485 12.5v8.058"/><path d="M19.261 11.403a3.642 3.642 0 0 1 .648-1.668c.332-.464.552-1.232.552-2"/><path fill="#3CBEED" d="M7.724 8.918l.22-3.296-2.392.146-.172-2.734a10.481 10.481 0 0 1 3.08-1.843l4.025 12.047-4.761-4.32z"/><path fill="#3CBEED" d="M19.258 2.729l-.147 2.307-.05.744-2.393-.146.234 3.296-4.417 4.308 3.73-12.181c1.104.39 2.135.952 3.043 1.672z"/><path d="M12.298 0.422L10.177 6.335 8.459 1.191"/><path d="M16.216 1.057l-1.72 5.615-1.312-3.796-.883-2.454h.208c1.301 0 2.553.218 3.707.635z"/><path fill="#FFD0A9" d="M23.522 11.236c.045.682.573 1.387 1.25 1.387.678 0 1.227-.545 1.227-1.22 0-1.174.962-2.132 2.147-2.132 1.187 0 2.148.958 2.148 2.137 0 3.028-2.472 5.488-5.522 5.488-2.702 0-5.021-1.722-5.513-4.273-.063-.327-.091-.875-.091-1.22l4.354-.167z"/><path fill="#FFD0A9" d="M29.51 13.207l-1.825-.747a1.856 1.856 0 0 1-1.016-2.425l.213-.516a1.872 1.872 0 0 1 2.438-1.01l1.825.748c.546.222.805.843.58 1.385l-.822 1.988c-.224.542-.847.8-1.392.577"/></g><g><path fill="#804BB5" d="M35 11c-.99-.631-2.16-.903-3-1-2.325-.09-3.917.317-5 1-3.284 1.75-5 4.88-5 8v11c0 .737.288 1.025 1 1 2.056-.201 3.073-1.586 3-4v-5c.327-2.008 1.618-3.308 3-3h4c1.382-.308 2.673.992 3 3v5c-.074 2.414.944 3.799 3 4 .712.025 1-.263 1-1V19c0-3.146-1.745-6.265-5-8"/><path fill="#B973FF" d="M35 11c-.99-.615-2.16-.9-3-1-2.325-.094-3.917.33-5 1-3.284 1.866-5 5.13-5 8v4c0-3.31 1.716-6.573 5-8 1.083-1.11 2.675-1.535 5-1 .84-.34 2.01-.055 3 1 3.255 1.411 5 4.663 5 8v-4c0-2.897-1.745-6.15-5-8"/><path fill="#FFD0A9" d="M27 18c-.603-.142-1.383.28-2 1l-1 3c-2.63.142-2.486 3.833 0 4 .848 2.82 3.65 5 7 5s6.153-2.18 7-5c2.485-.167 2.63-3.858 0-4l-1-3c-.639-.723-1.416-1.142-2-1h-8z"/><g fill="#FFC147"><path d="M27.5 24.75a.75.75 0 1 1-1.499.002.75.75 0 0 1 1.499-.003m8.5 0a.75.75 0 1 1-1.499.003.75.75 0 0 1 1.499-.003"/></g><path stroke="#494035" stroke-linecap="round" stroke-linejoin="round" d="M28.5 27c1.514.696 3.486.696 5 0"/><g stroke="#494035" stroke-linecap="round" stroke-linejoin="round"><path d="M27.535 22.562a.87.87 0 0 1 1.226 0m4.682 0a.872.872 0 0 1 1.227 0"/></g><path fill="#804BB5" d="M37.632 17.134v1.83c0 .675-.55 1.221-1.226 1.221h-9.818a1.224 1.224 0 0 1-1.227-1.22v-1.831"/></g></g></svg>
